X:1
T:Title
%%score { 1 | 2 }
L:1/8
M:3/4
K:Ab
V:1 treble nm="Grand Piano"
V:2 bass 
V:1
 z2 z2[Q:1/4=94] [CEA]>[EB] | [Ec]3 [FB] [A,FA]>[A,DF] | [A,DF]2 [A,CE]2 [CEA]>[EB] | [Ec]3 B A>c | %4
[M:2/4] B4 |[M:1/4] [CEA]>[EB] |[M:3/4] [Ec]3 [FB] [A,FA]>[A,DF] | [A,DF]2 [A,CE]2 [CEA]>[B,EG] | %8
 F3 B G>E |[M:2/4] A4 |[M:1/4] [Ec]>[Gd] |[M:3/4] [Ae]3 [Ec] [FB]>[FA] | [DF]2 [CE]2 [Ec]>[Gd] | %13
 [Ae]3 [Ec] [=DB]>[DA] |[M:2/4] [DB]4 |[M:1/4] [Ec]>[EB] |[M:3/4] [CEA]3 [CEA] [C_GB]>[CGA] | %17
 [Fe]2 [Fd]2 [DF]>[FB] | A3 A AG |[M:2/4] [CA]4 |] %20
V:2
 z2 z2 A,,>[E,G,] | [A,,A,]3 [D,A,] D,>D, | A,,2 A,,2 A,,>[E,G,] | %3
 [A,,A,]3 [E,G,E] [F,B,=D]>[F,B,D] |[M:2/4] [E,G,E]4 |[M:1/4] A,,>[E,G,] | %6
[M:3/4] [A,,A,]3 [D,A,] D,>D, | A,,2 A,,2 A,,>B,, | [D,A,D]3 [F,B,=D] [G,B,_D]>[G,B,D] | %9
[M:2/4] [A,C]4 |[M:1/4] [A,,A,]>[F,B,] |[M:3/4] [A,,C]3 [A,,A,] [D,A,]>[D,A,] | %12
 [A,,A,]2 [A,,A,]2 [A,,A,]>[E,B,] | [A,,C]3 [A,,A,] [B,,F,]>[B,,F,] |[M:2/4] [E,G,]4 | %15
[M:1/4] [A,,A,]>[E,G,] |[M:3/4] A,,3 A,, E,>E, | [D,A,]2 [D,A,]2 [D,A,]>[D,A,] | %18
 [E,A,C]3 [E,A,C] [E,G,D][E,B,D] |[M:2/4] [A,,A,]4 |] %20

